X:1
T:Redcliffe, CM
T:Redcliffe, CM
T:Phyllis Skene, ca. 1902
T:Public Domain Courtesy of the Cyber Hymnal™
C:Phyllis Skene, ca. 1902
Z:Public Domain
Z:Courtesy of the Cyber Hymnal™
%%score ( 1 2 ) ( 3 4 )
L:1/8
M:3/4
K:Bb
V:1 treble 
V:2 treble 
V:3 bass 
V:4 bass 
V:1
 [DF]2 | [DF]4 [DB]2 | (B2 A2) [EG]2 | F4 [Ff]2 | (f2 e2) [Gd]2 | (d2 c2) G2 | (A2 B2) [Ec]2 | %7
 F6- | [DF]4 [DF]2 | (c2 A2) [CG]2 | (F2 B2) [Fd]2 | [^Fd]4 [Fc]2 x4 | [GB]4 [Fc]2 | %13
 (F2 [EG]2) [EB]2 | [Ee]4 [Ec]2 | [DB]4 |] %16
V:2
 x2 | x6 | E4 x2 | F4 x2 | G4 x2 | G4 G2 | E4 x2 | E2 D2 C2 | x6 | F4 x2 | F4 x2 | x10 | x6 | %13
 F2 x4 | x6 | x4 |] %16
V:3
 [B,,F,]2 | [B,,F,]4 [B,,F,]2 | [C,C]4 [C,A,]2 | [D,B,]4 [D,B,]2 | [E,B,]4 [E,B,]2 | %5
 (=B,2 C2) [E,C]2 | C4 [F,A,]2 | B,6- | B,4 [B,,B,]2 | [E,A,]4 [E,A,]2 | [D,B,]4 [D,B,]2 | %11
 A,2 z2 x6 | [G,D]4 [E,A,]2 | B,4 G,2 | (G,2 C2) [F,A,]2 | [B,,B,]4 |] %16
V:4
 x2 | x6 | x6 | x6 | x6 | E,4 x2 | (F,2 G,2) x2 | B,6- | B,4 x2 | x6 | x6 | D,4 (D4 D,2) | x6 | %13
 (D,2 E,2) G,2 | C,4 x2 | x4 |] %16

